X: 1057
T: Hicazkâr Seyir
C: Erol Bingöl
O: Turkey
F: http://compmusic.upf.edu/node/140
N: hicazkar--seyir--devrihindi--1--erol_bingol
N: makam= hicazkar
N: form= seyir
N: usul= devrihindi = 7/4
M: 7/4
L: 1/16
K: C _1/4B _7/8e _7/8A ^f
Q: 1/4=60
%%MIDI tuningsystem comma53
f4 g4 g4 g2a2 b2a2 g3f e4  | d2e2 f2g2 a2b2 a3g f2a2 g8  | 
w:   |   | 
f2g2 a4 g2f2 f2e2 e2d2 gfed c4  | \
w:   | 
d2e2 f4 e2d2 d3c B2c2 d8  | 
w:   | 
a4 g4 f4 g3f e2d2 e8  | d2e2 f2g2 f2e2 d2c4e2 dcBA B4  | 
w:   |   | 
c4 d4 e4 g2f2 e2d2 c2e2 d2c2  | B2c2 d4 c2B2 B2A2 A2G2 G8  | 
w:   |   | 
|


